X: 34945
T: Rocky River, The
R: reel
M: 4/4
K: Gmajor
ef|gG G2 DGBd|g2 bg agef|g2 fg egdB|cABG AGEF|
gG G2 DGBd|g2 bg agef|gefd edBd|cAFA G2 ga|
bg g2 agef|g2 fg edBd|bg g2 aged|eaag abga|
bg g2 agef|gafg edBd|edef gedB|AGFA G2 z2||

